src/images/santiment-white.svg

<svg width="160" height="32" viewBox="0 0 160 32" fill="none" xmlns="http://www.w3.org/2000/svg">
<path d="M0 20.9016C0 20.1469 0.194148 19.5805 0.583651 19.2026C0.973154 18.8246 1.49892 18.6362 2.16216 18.6362C2.8254 18.6362 3.35117 18.8258 3.74067 19.2026C4.13018 19.5805 4.32432 20.1469 4.32432 20.9016C4.32432 21.6846 4.13018 22.2645 3.74067 22.6413C3.35117 23.0181 2.8254 23.2077 2.16216 23.2077C1.49892 23.2077 0.973154 23.0181 0.583651 22.6413C0.194148 22.2645 0 21.6846 0 20.9016Z" fill="white"/>
<path d="M7.43631 27.8109C8.01096 28.1675 8.69381 28.472 9.48486 28.7243C10.2747 28.9765 11.0874 29.1033 11.9205 29.1033C12.869 29.1033 13.6733 28.8572 14.3345 28.3639C14.9957 27.8705 15.3263 27.0715 15.3263 25.9655C15.3263 25.0397 15.1244 24.278 14.7228 23.6802C14.3201 23.0825 13.8104 22.5444 13.1924 22.066C12.5745 21.5888 11.9061 21.1489 11.1872 20.7488C10.4683 20.3486 9.79983 19.869 9.1819 19.306C8.56397 18.7431 8.05304 18.077 7.6515 17.3078C7.24877 16.5373 7.048 15.5606 7.048 14.3763C7.048 12.4813 7.5433 11.0534 8.53512 10.0903C9.52693 9.12728 10.9287 8.64636 12.7392 8.64636C13.9174 8.64636 14.938 8.7582 15.8 8.98064C16.662 9.20308 17.4097 9.50878 18.0421 9.89401L17.2234 12.5682C16.6776 12.2712 16.0441 12.0264 15.3263 11.8326C14.6074 11.64 13.8741 11.543 13.1275 11.543C12.0924 11.543 11.3386 11.7655 10.8638 12.2116C10.3889 12.6577 10.1521 13.3561 10.1521 14.3067C10.1521 15.0499 10.3528 15.6811 10.7556 16.2006C11.1583 16.7213 11.668 17.196 12.286 17.6272C12.9039 18.0584 13.5723 18.4958 14.2912 18.9419C15.009 19.388 15.6774 19.9149 16.2965 20.5238C16.9144 21.1328 17.4242 21.861 17.8269 22.7072C18.2296 23.5535 18.4304 24.6172 18.4304 25.8934C18.4304 26.726 18.3006 27.5126 18.0421 28.2558C17.7836 28.9989 17.3881 29.6451 16.8567 30.1943C16.3242 30.7448 15.6642 31.1823 14.8731 31.5091C14.0821 31.8359 13.1552 31.9999 12.0924 31.9999C10.8277 31.9999 9.73491 31.8732 8.81523 31.6209C7.89555 31.3687 7.11893 31.0344 6.48657 30.6181L7.43631 27.8109Z" fill="white"/>
<path d="M22.1399 10.518C22.973 9.98363 23.9865 9.56734 25.1803 9.27034C26.3728 8.97334 27.6303 8.82422 28.9527 8.82422C30.1597 8.82422 31.1299 9.01062 31.8633 9.38094C32.5966 9.75249 33.1712 10.2583 33.5884 10.8958C34.0044 11.5345 34.2785 12.2627 34.4071 13.0791C34.5369 13.8968 34.6006 14.7505 34.6006 15.6415C34.6006 17.4248 34.5634 19.162 34.49 20.8558C34.4155 22.5495 34.3794 24.1538 34.3794 25.6686C34.3794 26.7982 34.4155 27.8458 34.49 28.8101C34.5646 29.7757 34.7016 30.689 34.9036 31.5515H32.4728L31.719 28.922H31.5483C31.1203 29.6949 30.4928 30.3635 29.6656 30.9276C28.8385 31.4918 27.7253 31.7739 26.3271 31.7739C24.7859 31.7739 23.5236 31.2172 22.539 30.1025C21.5544 28.9878 21.0627 27.4506 21.0627 25.4897C21.0627 24.2122 21.2683 23.1423 21.6831 22.2811C22.0966 21.4199 22.6809 20.7216 23.4371 20.186C24.1921 19.6516 25.0901 19.2726 26.1312 19.0489C27.1711 18.8265 28.3336 18.7146 29.6164 18.7146C29.9013 18.7146 30.1862 18.7146 30.4711 18.7146C30.756 18.7146 31.0554 18.7296 31.3704 18.7594C31.4557 17.8386 31.4978 17.0209 31.4978 16.3076C31.4978 14.6138 31.2549 13.4258 30.7717 12.7424C30.2872 12.0589 29.4036 11.7172 28.1232 11.7172C27.325 11.7172 26.457 11.8439 25.5169 12.0962C24.5768 12.3484 23.7941 12.669 23.1666 13.0543L22.1399 10.518ZM31.41 21.3044C31.1251 21.2746 30.8426 21.2522 30.5577 21.2373C30.2739 21.2224 29.9902 21.2149 29.7065 21.2149C29.0249 21.2149 28.3577 21.2746 27.7037 21.3926C27.0497 21.5119 26.4678 21.7194 25.9569 22.0164C25.4459 22.3134 25.0408 22.7148 24.7427 23.2193C24.4445 23.7251 24.2954 24.3638 24.2954 25.1355C24.2954 26.3248 24.5719 27.2456 25.1262 27.8992C25.6804 28.5529 26.3969 28.8797 27.2769 28.8797C28.4695 28.8797 29.3927 28.5827 30.0455 27.9887C30.6995 27.3947 31.1528 26.7411 31.4088 26.0278V21.3044H31.41Z" fill="white"/>
<path d="M50.6383 31.4656V17.872C50.6383 15.6439 50.3858 14.0321 49.8833 13.0367C49.3796 12.0413 48.4816 11.5443 47.188 11.5443C46.0375 11.5443 45.089 11.9009 44.3425 12.6142C43.5947 13.3275 43.0489 14.2036 42.7039 15.2437V31.4668H39.5999V9.18071H41.8419L42.4021 11.543H42.532C43.0778 10.7403 43.8183 10.058 44.7524 9.49262C45.6865 8.92845 46.8009 8.64636 48.0945 8.64636C49.0142 8.64636 49.8256 8.78057 50.5301 9.04774C51.2346 9.31492 51.8237 9.7685 52.2985 10.4072C52.7722 11.046 53.1316 11.8997 53.3769 12.9696C53.6209 14.0396 53.7435 15.3916 53.7435 17.0257V31.4656H50.6383Z" fill="white"/>
<path d="M56.3735 9.18083H59.0039V4.76935L62.108 3.74414V9.18208H66.7641V12.0787H62.108V25.3604C62.108 26.6677 62.2595 27.6109 62.5612 28.19C62.863 28.7691 63.3595 29.0586 64.0484 29.0586C64.623 29.0586 65.1183 28.9915 65.5355 28.8585C65.9514 28.7243 66.4047 28.5541 66.894 28.3466L67.4975 30.8866C66.8651 31.2134 66.1678 31.4731 65.4056 31.667C64.6435 31.8596 63.8464 31.9565 63.0133 31.9565C61.5754 31.9565 60.5488 31.4731 59.9308 30.5076C59.3129 29.542 59.0039 27.975 59.0039 25.8053V12.0775H56.3735V9.18083Z" fill="white"/>
<path d="M70.3425 2.40706C70.3425 1.69376 70.5361 1.11468 70.9244 0.668558C71.3127 0.222438 71.8236 0 72.456 0C73.0883 0 73.6125 0.216225 74.0297 0.64619C74.4456 1.0774 74.6548 1.66394 74.6548 2.40706C74.6548 3.12035 74.4456 3.67707 74.0297 4.07845C73.6125 4.47983 73.0883 4.6799 72.456 4.6799C71.8236 4.6799 71.3139 4.47238 70.9256 4.05608C70.5373 3.63979 70.3425 3.09053 70.3425 2.40706ZM70.904 9.18086H74.008V31.4657H70.904V9.18086Z" fill="white"/>
<path d="M89.832 31.4657V18.2288C89.832 17.0408 89.7959 16.023 89.7238 15.1755C89.6517 14.3292 89.5002 13.6383 89.2706 13.1027C89.0397 12.5684 88.7248 12.1745 88.322 11.9222C87.9193 11.6699 87.3879 11.5432 86.7267 11.5432C85.7493 11.5432 84.9222 11.9371 84.2478 12.7237C83.5721 13.5116 83.1057 14.41 82.846 15.4203V31.4645H79.7419V9.18086H81.9408L82.501 11.5432H82.6308C83.2343 10.682 83.9532 9.98362 84.7864 9.44803C85.6195 8.91368 86.6834 8.64526 87.977 8.64526C89.0686 8.64526 89.9666 8.89007 90.6723 9.38093C91.3768 9.87054 91.9298 10.7404 92.3326 11.9881C92.8495 10.9479 93.59 10.1315 94.553 9.53626C95.516 8.94226 96.5715 8.64526 97.722 8.64526C98.6705 8.64526 99.482 8.77202 100.158 9.02428C100.833 9.27654 101.379 9.72266 101.796 10.3614C102.212 11.0001 102.522 11.8476 102.723 12.9014C102.924 13.9564 103.025 15.2861 103.025 16.8904V31.4645H99.9208V17.293C99.9208 15.3619 99.7405 13.9217 99.3822 12.9698C99.0228 12.0191 98.1969 11.5432 96.9033 11.5432C95.8105 11.5432 94.9413 11.8924 94.2945 12.5907C93.6478 13.2891 93.1945 14.2323 92.9361 15.4203V31.4645H89.832V31.4657Z" fill="white"/>
<path d="M120.702 29.9496C120.012 30.6033 119.135 31.1091 118.072 31.4645C117.008 31.8211 115.888 31.9988 114.71 31.9988C113.358 31.9988 112.187 31.7242 111.196 31.1749C110.204 30.6257 109.385 29.8378 108.738 28.8126C108.091 27.7874 107.618 26.5621 107.316 25.1355C107.014 23.7089 106.863 22.1046 106.863 20.3227C106.863 16.5201 107.538 13.6222 108.89 11.6314C110.241 9.64064 112.151 8.64526 114.624 8.64526C115.428 8.64526 116.227 8.74965 117.018 8.95717C117.808 9.16594 118.519 9.581 119.152 10.2048C119.784 10.8286 120.294 11.706 120.682 12.8343C121.07 13.9639 121.264 15.4352 121.264 17.247C121.264 17.7528 121.242 18.2946 121.199 18.8737C121.156 19.4528 121.105 20.0542 121.049 20.6793H110.097C110.097 21.9568 110.196 23.1162 110.398 24.1563C110.599 25.1964 110.915 26.08 111.347 26.8082C111.779 27.5364 112.332 28.1005 113.007 28.5019C113.683 28.9033 114.523 29.1034 115.529 29.1034C116.306 29.1034 117.074 28.9555 117.836 28.6573C118.597 28.3603 119.179 28.0036 119.583 27.5873L120.702 29.9496ZM118.288 18.0063C118.346 15.7782 118.044 14.1441 117.383 13.104C116.722 12.0639 115.816 11.5444 114.667 11.5444C113.345 11.5444 112.296 12.0651 111.52 13.104C110.743 14.1441 110.284 15.7782 110.14 18.0063H118.288Z" fill="white"/>
<path d="M136.656 31.4656V17.872C136.656 15.6439 136.403 14.0321 135.901 13.0367C135.397 12.0413 134.499 11.5443 133.205 11.5443C132.055 11.5443 131.106 11.9009 130.36 12.6142C129.612 13.3275 129.066 14.2036 128.721 15.2437V31.4668H125.617V9.18071H127.859L128.42 11.543H128.549C129.095 10.7403 129.836 10.058 130.77 9.49262C131.704 8.92845 132.818 8.64636 134.111 8.64636C135.03 8.64636 135.842 8.78057 136.546 9.04774C137.251 9.31492 137.84 9.7685 138.314 10.4072C138.788 11.046 139.147 11.8997 139.392 12.9696C139.636 14.0396 139.759 15.3916 139.759 17.0257V31.4656H136.656Z" fill="white"/>
<path d="M142.39 9.18083H145.02V4.76935L148.124 3.74414V9.18208H152.78V12.0787H148.124V25.3604C148.124 26.6677 148.274 27.6109 148.577 28.19C148.879 28.7691 149.374 29.0586 150.064 29.0586C150.639 29.0586 151.134 28.9915 151.552 28.8585C151.968 28.7243 152.421 28.5541 152.91 28.3466L153.514 30.8866C152.881 31.2134 152.184 31.4731 151.423 31.667C150.661 31.8596 149.864 31.9565 149.029 31.9565C147.592 31.9565 146.565 31.4731 145.947 30.5076C145.329 29.542 145.02 27.975 145.02 25.8053V12.0775H142.39V9.18083Z" fill="white"/>
<path d="M155.676 20.5512C155.676 19.7964 155.87 19.2301 156.259 18.8521C156.649 18.4742 157.175 18.2858 157.838 18.2858C158.501 18.2858 159.027 18.4753 159.416 18.8521C159.806 19.2301 160 19.7964 160 20.5512C160 21.3341 159.806 21.914 159.416 22.2908C159.027 22.6677 158.501 22.8572 157.838 22.8572C157.175 22.8572 156.649 22.6677 156.259 22.2908C155.87 21.914 155.676 21.3341 155.676 20.5512Z" fill="white"/>
</svg>

<svg width="160" height="32" fill="none" xmlns="http://www.w3.org/2000/svg"><path d="M0 20.902c0-.755.194-1.322.584-1.7.39-.377.915-.566 1.578-.566s1.19.19 1.579.567c.39.378.583.944.583 1.699 0 .783-.194 1.363-.583 1.74-.39.376-.916.566-1.579.566-.663 0-1.189-.19-1.578-.567-.39-.376-.584-.956-.584-1.74zM7.436 27.81c.575.358 1.258.662 2.049.914.79.253 1.602.38 2.436.38.948 0 1.752-.247 2.414-.74.66-.494.991-1.293.991-2.399 0-.925-.202-1.687-.603-2.285a6.962 6.962 0 0 0-1.53-1.614 16.023 16.023 0 0 0-2.006-1.317 10.68 10.68 0 0 1-2.005-1.443 7.16 7.16 0 0 1-1.53-1.998c-.403-.77-.604-1.747-.604-2.932 0-1.895.495-3.323 1.487-4.286.992-.963 2.394-1.444 4.204-1.444 1.178 0 2.199.112 3.061.335.862.222 1.61.528 2.242.913l-.819 2.674a8.724 8.724 0 0 0-1.897-.735 8.463 8.463 0 0 0-2.199-.29c-1.035 0-1.788.223-2.263.669-.475.446-.712 1.144-.712 2.095 0 .743.2 1.374.604 1.894.402.52.912.995 1.53 1.426.618.431 1.286.869 2.005 1.315.718.446 1.386.973 2.006 1.582a7.642 7.642 0 0 1 1.53 2.183c.403.846.603 1.91.603 3.186 0 .833-.13 1.62-.388 2.363a5.215 5.215 0 0 1-1.185 1.938c-.533.55-1.193.988-1.984 1.315-.79.327-1.718.49-2.78.49-1.265 0-2.358-.126-3.278-.378-.92-.252-1.696-.587-2.328-1.003l.95-2.807zM22.14 10.518c.833-.534 1.846-.95 3.04-1.248a15.559 15.559 0 0 1 3.773-.446c1.207 0 2.177.187 2.91.557.734.371 1.308.877 1.725 1.515.416.638.69 1.367.82 2.183.129.818.193 1.671.193 2.563 0 1.783-.038 3.52-.111 5.214-.075 1.693-.11 3.298-.11 4.813 0 1.13.035 2.177.11 3.141.075.966.212 1.879.414 2.742h-2.431l-.754-2.63h-.17c-.429.773-1.056 1.441-1.883 2.006-.828.564-1.94.846-3.339.846-1.541 0-2.803-.557-3.788-1.672-.985-1.114-1.476-2.651-1.476-4.612 0-1.278.205-2.348.62-3.209a5.363 5.363 0 0 1 1.754-2.095c.755-.534 1.653-.913 2.694-1.137 1.04-.223 2.203-.334 3.485-.334h.855c.285 0 .584.015.9.044a26.9 26.9 0 0 0 .127-2.451c0-1.694-.243-2.882-.726-3.566-.485-.683-1.368-1.025-2.649-1.025-.798 0-1.666.127-2.606.38-.94.251-1.723.572-2.35.957l-1.027-2.536zm9.27 10.786a16.405 16.405 0 0 0-1.704-.09c-.681 0-1.348.06-2.002.179a5.358 5.358 0 0 0-1.747.623 3.332 3.332 0 0 0-1.214 1.203c-.298.506-.448 1.145-.448 1.916 0 1.19.277 2.11.831 2.764.554.654 1.27.98 2.15.98 1.194 0 2.117-.296 2.77-.89.654-.594 1.107-1.248 1.363-1.961v-4.724h.001zM50.638 31.466V17.872c0-2.228-.252-3.84-.755-4.835-.503-.996-1.401-1.493-2.695-1.493-1.15 0-2.099.357-2.846 1.07-.747.713-1.293 1.59-1.638 2.63v16.223H39.6V9.18h2.242l.56 2.362h.13c.546-.803 1.286-1.485 2.22-2.05.934-.565 2.049-.847 3.342-.847.92 0 1.732.135 2.436.402.705.267 1.294.72 1.768 1.36.474.638.834 1.492 1.079 2.562.244 1.07.366 2.422.366 4.056v14.44h-3.105zM56.373 9.18h2.63V4.77l3.105-1.026v5.438h4.656v2.897h-4.656V25.36c0 1.308.152 2.25.453 2.83.302.58.798.869 1.487.869.575 0 1.07-.068 1.487-.2.416-.135.87-.305 1.359-.512l.603 2.54a9.807 9.807 0 0 1-4.484 1.07c-1.438 0-2.464-.484-3.082-1.45-.618-.965-.927-2.532-.927-4.702V12.078h-2.63V9.18zM70.343 2.407c0-.713.193-1.292.581-1.738.389-.447.9-.669 1.532-.669s1.156.216 1.574.646c.416.431.625 1.018.625 1.761 0 .713-.21 1.27-.625 1.671-.418.402-.942.602-1.574.602-.632 0-1.142-.208-1.53-.624-.389-.416-.584-.965-.584-1.649zm.561 6.774h3.104v22.285h-3.104V9.18zM89.832 31.466V18.229c0-1.188-.036-2.206-.108-3.053-.072-.847-.224-1.538-.453-2.073-.231-.535-.546-.928-.949-1.18-.403-.253-.934-.38-1.595-.38-.978 0-1.805.394-2.48 1.18a6.616 6.616 0 0 0-1.401 2.697v16.045h-3.104V9.18h2.199l.56 2.362h.13a7.725 7.725 0 0 1 2.155-2.095c.834-.534 1.897-.803 3.191-.803 1.092 0 1.99.245 2.695.736.705.49 1.258 1.36 1.66 2.607a5.913 5.913 0 0 1 2.221-2.452 5.919 5.919 0 0 1 3.169-.89c.949 0 1.76.126 2.436.378.675.253 1.221.699 1.638 1.337.416.64.726 1.487.927 2.54.201 1.055.302 2.385.302 3.99v14.574h-3.104V17.293c0-1.931-.18-3.371-.539-4.323-.36-.95-1.185-1.427-2.479-1.427-1.093 0-1.962.35-2.609 1.048-.646.698-1.1 1.641-1.358 2.83v16.044h-3.104zM120.702 29.95c-.69.653-1.567 1.16-2.63 1.515a10.506 10.506 0 0 1-3.362.534c-1.352 0-2.523-.275-3.514-.824-.992-.55-1.811-1.337-2.458-2.362-.647-1.026-1.12-2.25-1.422-3.677-.302-1.427-.453-3.031-.453-4.813 0-3.803.675-6.7 2.027-8.692 1.351-1.99 3.261-2.986 5.734-2.986.804 0 1.603.105 2.394.312.79.209 1.501.624 2.134 1.248.632.624 1.142 1.501 1.53 2.63.388 1.129.582 2.6.582 4.412 0 .506-.022 1.048-.065 1.627-.043.579-.094 1.18-.15 1.805h-10.952c0 1.278.099 2.437.301 3.477.201 1.04.517 1.924.949 2.652.432.728.985 1.293 1.66 1.694.676.401 1.516.601 2.522.601a6.28 6.28 0 0 0 2.307-.446c.761-.297 1.343-.653 1.747-1.07l1.119 2.363zm-2.414-11.944c.058-2.228-.244-3.862-.905-4.902s-1.567-1.56-2.716-1.56c-1.322 0-2.371.521-3.147 1.56-.777 1.04-1.236 2.674-1.38 4.902h8.148zM136.656 31.466V17.872c0-2.228-.253-3.84-.755-4.835-.504-.996-1.402-1.493-2.696-1.493-1.15 0-2.099.357-2.845 1.07-.748.713-1.294 1.59-1.639 2.63v16.223h-3.104V9.18h2.242l.561 2.362h.129c.546-.803 1.287-1.485 2.221-2.05.934-.565 2.048-.847 3.341-.847.919 0 1.731.135 2.435.402a3.89 3.89 0 0 1 1.768 1.36c.474.638.833 1.492 1.078 2.562.244 1.07.367 2.422.367 4.056v14.44h-3.103zM142.39 9.18h2.63V4.77l3.104-1.026v5.438h4.656v2.897h-4.656V25.36c0 1.308.15 2.25.453 2.83.302.58.797.869 1.487.869.575 0 1.07-.068 1.488-.2.416-.135.869-.305 1.358-.512l.604 2.54a9.835 9.835 0 0 1-4.485 1.07c-1.437 0-2.464-.484-3.082-1.45-.618-.965-.927-2.532-.927-4.702V12.078h-2.63V9.18zM155.676 20.551c0-.755.194-1.32.583-1.699.39-.378.916-.566 1.579-.566.663 0 1.189.19 1.578.566.39.378.584.944.584 1.7 0 .782-.194 1.362-.584 1.739-.389.377-.915.566-1.578.566s-1.189-.19-1.579-.566c-.389-.377-.583-.957-.583-1.74z" fill="#fff"/></svg>
